X:297
T:The Spike Island lasses
R:Reel
O:Ireland
B:Play 50 Reels
B:50 Fiddle Solos- Keane
S:My arrangement from various sources
Z:Transcription, arrangement, chords:Mike Long
M:C|
L:1/8
K:G
d|:\
"C"cAGB "D"ADDE|"D"FDAD FDAd|"C"cAGB "Am"AG (3(EFG)|[1 "A"Adde "D"fded:|[2 "A"Add^c "D"d3|]
e|\
"D"f2df "C"efge|"D"fded "A"^cA~A2|"D"fd~d2 "A"ed^cA|"A"Add^c "D"d2cd|\
"C"eaag eage|"D"dfed "A"^cA~A2|
"D"Ad~d2 fded|"A"Add^c "D"d2|]\
ed|\
"C"cAGB "D"~A3d|"G"(3(Bcd) BG AddB|"C"cAGB "Am"AG (3(EFG)|"A"Adde "D"fded|
"C"cAGB "D"~A2Ad|"G"BGGF GBdB|"C"cAGB "Am"AGEG|"A"Add^c "D"~d3|]\
e|\
"D"f2ad fdad|"D"fdad "C"gece|
"D"fd~d2 ad~d2 |"D"fage "A"d^cA2|\
"D"defg ~a3a|"D"agfd "G"~g3e|"D"fedf "C"edcA|"G"d^cde fded|]
